X: 1
T: Bonnie Summer Days
M: 6/8
L: 1/8
R: jig
K: Gmaj
|:D|G2B d2B|cBc A2B|cAF DEF|GAG FED|
G2B d2B|cBc A2B|cAF DEF|G3 G2:|
|:B|d2B BAB|c2A AGA|B2G GFG|A2G FED|
d2B BAB|c2A AGA|B2G A2F|G3 G2:|
